assets/svg/icon-large-redpoint-growth-white.svg

<?xml version="1.0" encoding="UTF-8" standalone="no"?>
<svg width="64px" height="64px" viewBox="0 0 64 64" version="1.1" xmlns="http://www.w3.org/2000/svg" xmlns:xlink="http://www.w3.org/1999/xlink">
    <!-- Generator: Sketch 3.8.3 (29802) - http://www.bohemiancoding.com/sketch -->
    <title>white/icon-large-redpoint-growth-white</title>
    <desc>Created with Sketch.</desc>
    <defs></defs>
    <g id="white" stroke="none" stroke-width="1" fill="none" fill-rule="evenodd">
        <g id="icons,-large-detailed-white" transform="translate(-274.000000, -248.000000)" fill="#FFFFFF">
            <g id="white/icon-large-redpoint-growth-white" transform="translate(274.000000, 248.000000)">
                <g id="icon-redpoint-growth">
                    <g id="PaaS">
                        <g id="bearings_v1.1_2015-11-13_Kris">
                            <g id="Steps">
                                <path d="M34.6372604,52.9547908 C39.9270578,53.9877173 44.9485973,55.6012932 48.8271236,57.108165 C44.0174933,60.3378857 38.2288018,62.2222222 32,62.2222222 C24.2884853,62.2222222 17.2515484,59.3340126 11.9119076,54.5803109 C16.5420444,52.0244178 22.4988889,51.5126366 28.5370276,52.0663572 C29.2450916,41.8117056 28.453488,38.0873061 27.4673689,29.5818108 C24.7546862,30.1158709 22.6660978,28.1079458 21.242448,25.1890329 C19.5822951,21.7852142 19.4771236,9.83784036 19.4771236,9.83784036 C19.4771236,9.83784036 28.8270329,17.276254 30.4871858,20.6800727 C32.0409618,23.8657865 32.2520053,27.0075698 29.4821369,28.7581538 C31.1218347,32.0874482 31.2087449,36.0437241 32,40 C33.2650027,38.7349968 34.3270044,37.4729664 35.2851236,36.3045673 C35.2673653,36.2889353 35.2496178,36.2731348 35.2318827,36.2571648 C32.6532018,33.9353099 33.6122809,31.0136631 35.9341351,28.434982 C38.2559911,25.856301 48.369664,21.6661801 48.369664,21.6661801 C48.369664,21.6661801 45.259664,32.1624361 42.937808,34.7411172 C40.9040587,36.9998251 38.4993262,38.2462055 36.2009173,36.9603892 C34.9024142,38.9846366 33.3715307,41.2187426 32.8888889,42.6666667 C32.3021547,47.947272 33.6518649,51.2914334 34.6372604,52.9547908 L34.6372604,52.9547908 L34.6372604,52.9547908 Z M32,64 C49.6731111,64 64,49.673112 64,32 C64,14.326888 49.6731111,0 32,0 C14.3268889,0 0,14.326888 0,32 C0,49.673112 14.3268889,64 32,64 L32,64 Z M32,62.2222222 C48.6912729,62.2222222 62.2222222,48.6912724 62.2222222,32 C62.2222222,15.3087276 48.6912729,1.77777778 32,1.77777778 C15.3087271,1.77777778 1.77777778,15.3087276 1.77777778,32 C1.77777778,48.6912724 15.3087271,62.2222222 32,62.2222222 L32,62.2222222 Z M26.6666667,26.6666667 C24.8888889,24 23.1111111,18.4712044 23.1111111,17.7777778 C23.1111111,16.8888889 25.9023573,20.4444444 27.3777778,25.0666667 C28.0793618,27.2646018 27.7596622,28.3061611 26.6666667,26.6666667 L26.6666667,26.6666667 Z M37.3333333,33.7777778 C38.2222222,32 42.6666667,28.4444444 42.6666667,28.4444444 C42.6666667,28.4444444 41.8635502,31.0253397 40,32.8888889 C38.2222222,34.6666667 36.7483964,34.9476501 37.3333333,33.7777778 L37.3333333,33.7777778 Z" id="icon-redpoint-growth"></path>
                            </g>
                        </g>
                    </g>
                </g>
            </g>
        </g>
    </g>
</svg>

<svg width="64" height="64" viewBox="0 0 64 64" xmlns="http://www.w3.org/2000/svg"><title>white/icon-large-redpoint-growth-white</title><path d="M34.637 52.955c5.29 1.033 10.312 2.646 14.19 4.153A30.082 30.082 0 0 1 32 62.222a30.109 30.109 0 0 1-20.088-7.642c4.63-2.556 10.587-3.067 16.625-2.514.708-10.254-.084-13.979-1.07-22.484-2.712.534-4.8-1.474-6.225-4.393-1.66-3.404-1.765-15.351-1.765-15.351s9.35 7.438 11.01 10.842c1.554 3.186 1.765 6.328-1.005 8.078C31.122 32.088 31.21 36.044 32 40c1.265-1.265 2.327-2.527 3.285-3.695a6.323 6.323 0 0 1-.053-.048c-2.579-2.322-1.62-5.243.702-7.822 2.322-2.579 12.436-6.769 12.436-6.769s-3.11 10.496-5.432 13.075c-2.034 2.259-4.439 3.505-6.737 2.22-1.299 2.024-2.83 4.258-3.312 5.706-.587 5.28.763 8.624 1.748 10.288zM32 64c17.673 0 32-14.327 32-32C64 14.327 49.673 0 32 0 14.327 0 0 14.327 0 32c0 17.673 14.327 32 32 32zm0-1.778c16.691 0 30.222-13.53 30.222-30.222 0-16.691-13.53-30.222-30.222-30.222C15.309 1.778 1.778 15.308 1.778 32c0 16.691 13.53 30.222 30.222 30.222zm-5.333-35.555C24.889 24 23.11 18.47 23.11 17.777c0-.888 2.791 2.667 4.267 7.29.701 2.198.382 3.24-.711 1.6zm10.666 7.11c.89-1.777 5.334-5.333 5.334-5.333S41.864 31.025 40 32.89c-1.778 1.778-3.252 2.059-2.667.889z" fill="#FFF" fill-rule="evenodd"/></svg>
